X:1
T:Title
%%score 1 2 3 4
L:1/8
M:2/2
K:C
V:1 treble nm="Part_1"
V:2 treble-8 nm="Part_2"
V:3 treble-8 nm="Part_3"
V:4 bass nm="Part_4"
V:1
 A8- | A8 | A8 | G8- | G8 | A8 | c8 | d8- | d4 B4- | B4 A4- | A4 G4- | G4 F4 | G8- | G8 | z8 | %15
 A8- | A8 | F8 | A4 G4- | G2 F2 F4- | F2 E2 E2 D2 | F8- | F8 | (3E8 D2 E2 | F4 E4- | E4 D4- | %26
 D4 C4 | D8- | D8 | z8 | G8- | G8 | G8- | G8 | D8 | D8 | C8 | F8 | G4 A4 | B4 c4- | c4 B4- | %41
 B2 A2 A4- | A2 G2 G2 F2 | A8- | A8 | z8 | A8- | A8 | F8 | A6 F2 | A4 G4- | G4 F4- | F4 E4 | F8 | %54
 E8- | E8 | F8- | F8 | D8 | E8 | C8 | D4 D4- | D4 C4 | D4 E4 | F4 E4- | E2 D2 D4- | D2 C2 B,2 B,2 | %67
[M:4/2] D16 |] %68
V:2
 A8 | F8 | A4 c4 | B8- | B8 | F8 | A8 | G8 | B4 d4- | d4 c4- | c4 B4 | A8 | G8- | G8 | (3B8 A2 G2 | %15
 F8 | D8 | d8 | c4 B4- | B4 A4 | G8 | F8 | A8 | c8 | A4 G4- | G4 F4 | E8 | D8- | D8 | A8 | B8- | %31
 B8 | c8- | c8 | f8- | f8 | e8 | d8 | B4 c4 | G4 A4- | A4 G4 | d4 c4 | B8 | F8 | D4 F4 | E8 | D8- | %47
 D8 | d8- | d8 | c4 B4- | B4 A4 | G8 | F4 A4 | (3c8 B2 A2 | G8 | F8 | D4 A4 | B8 | c8 | A8 | %61
 F4 D4 | E8 | D4 C4 | D4 G4- | G4 F4 | E8 |[M:4/2] D16 |] %68
V:3
 d6 e2 | f8- | f8 | d4 e4- | e4 d2 e2 | f8- | f8 | d4 g4- | g8 | g4 e4 | f4 d4 | d8 | B8 | d8 | %14
 d6 e2 | f8- | f8 | a8 | z4 d4 | e4 c4- | c4 A4 | c4 c4- | c4 F4 | G8 | F4 c4- | c4 A4 | A8 | F8 | %28
 z4 f4 | f8 | d8 | e8- | e8 | e8 | A8- | A8 | A8 | A8 | d2 e2 f4 | g6 f2 | f2 e2 g4- | g4 e2 f2 | %42
 d8 | f8 | z4 d4- | d2 c2 c2 B2 | d8- | d8 | A8- | A8 | z4 d4 | e4 c4 | c8 | A8- | A8 | E8 | A8 | %57
 d8 | z8 | g8 | a8- | a8 | a8 | f4 c4 | z4 c4- | c4 A4 | (A8 |[M:4/2] F16) |] %68
V:4
 D,8- | D,8 | F,8 | G,4 E,4- | E,4 G,4 | D,4 A,4 | F,4 C4 | B,8 | D4 G,4- | G,4 A,4 | F,4 G,4 | %11
 D,8 | D8 | B,8 | (3G,8 F,2 E,2 | D,8 | D8 | D,8 | F,4 G,4 | E,4 F,4 | C,8 | C4 A,4 | %22
 (3F,8 E,2 D,2 | C,8 | D,4 E,4 | C,4 D,4 | A,,8 | A,8- | A,8 | C8 | G,8 | E,8 | C,8- | C,8 | D,8- | %35
 D,8 | A,,8 | D,8 | G,4 F,4 | D4 C4- | C4 D4 | G,4 A,2 F,2 | G,8 | D,8 | A,4 A,4- | A,4 G,4 | A,8 | %47
 F,8 | D,8- | D,8 | F,4 G,4 | E,4 F,4 | C,8 | D,8 | A,,8 | C,8 | D,8 | A,4 F,4 | G,8 | C,8 | F,8 | %61
 D,8 | A,,8 | F,4 G,4 | F,4 C,4- | C,4 D,4 | A,,8 |[M:4/2] A,16 |] %68

